lib/logo_tmp/nrk-logo-nrk-p1-pluss-title-below.svg

<svg width="40" height="35" viewBox="0 0 40 35" fill="none" xmlns="http://www.w3.org/2000/svg">
<path d="M0 14.3333V0.334574H4.59339V14.3333H0ZM10.8428 2.56255L13.4844 14.3333H8.45737L5.30307 0.334574H8.12254C8.76907 0.326184 9.39641 0.554093 9.88691 0.975424C10.3782 1.37908 10.7158 1.93945 10.8428 2.56255ZM14.1744 14.3333V0.334574H18.7678V14.3333H14.1744ZM22.2372 5.65809C21.7422 5.66291 21.2552 5.5334 20.828 5.28343C20.4064 5.03978 20.0563 4.68959 19.8127 4.268C19.5624 3.84069 19.4329 3.35352 19.4378 2.85834C19.4321 2.36617 19.5618 1.88191 19.8127 1.45847C20.0589 1.04146 20.4086 0.695079 20.828 0.452909C21.2553 0.203222 21.7423 0.0737365 22.2372 0.0782507C22.7292 0.0729518 23.2133 0.202553 23.6369 0.452909C24.0521 0.697201 24.3981 1.04329 24.6424 1.45847C24.893 1.88203 25.0226 2.36621 25.0172 2.85834C25.0218 3.35348 24.8923 3.84057 24.6424 4.268C24.4007 4.68774 24.0542 5.03763 23.6369 5.28343C23.2133 5.53428 22.7289 5.66391 22.2366 5.65809H22.2372ZM25.7269 14.3333V0.334574H30.3207V14.3333H25.7269ZM36.136 7.98457C36.1489 7.99816 36.2475 8.15917 36.4317 8.46762C36.6159 8.77607 36.8558 9.17043 37.1513 9.65064C37.447 10.1306 37.759 10.6399 38.0874 11.1786C38.4157 11.7173 38.7247 12.2267 39.0143 12.7067C39.3028 13.1867 39.6313 13.7289 40 14.3333H34.9531C34.6375 13.8207 34.3515 13.3573 34.0952 12.9433C33.8389 12.5293 33.5665 12.0823 33.2778 11.6026C32.9884 11.1232 32.7024 10.6566 32.4196 10.2027C32.1368 9.74876 31.8938 9.35118 31.6905 9.00987C31.4863 8.66834 31.3449 8.43828 31.2663 8.31976C31.0713 8.02565 30.9559 7.68598 30.9315 7.33394C30.951 6.99606 31.0597 6.66944 31.2466 6.38726C31.3254 6.25582 31.47 6.02247 31.6803 5.68729C31.8906 5.35211 32.137 4.95453 32.4196 4.49448C32.7021 4.03443 32.9882 3.56451 33.2778 3.08474C33.5674 2.60497 33.8398 2.15474 34.0952 1.73413C34.3519 1.31395 34.6379 0.84732 34.9531 0.334254H40L36.0962 6.70272C35.9754 6.8918 35.9073 7.10971 35.8991 7.33394C35.9121 7.56935 35.9942 7.79567 36.1353 7.98457H36.136Z" fill="white"/>
<path d="M9.49055 22.1476C9.24853 21.7737 8.93783 21.4493 8.57496 21.1914C8.1705 20.9078 7.72116 20.6945 7.24588 20.5605C6.66894 20.401 6.07227 20.3248 5.47383 20.3341H0V34.3327H2.06745V29.305H5.63134C6.43573 29.3174 7.22954 29.1203 7.93505 28.7332C8.61121 28.3583 9.17272 27.8063 9.55945 27.1362C9.97398 26.3968 10.1815 25.5591 10.16 24.7114C10.1617 24.2532 10.1089 23.7964 10.0025 23.3507C9.90012 22.9238 9.72706 22.5172 9.49055 22.1476ZM7.65937 26.3965C7.39464 26.8123 7.00522 27.1333 6.54693 27.3137C5.99056 27.5243 5.39864 27.6247 4.80404 27.6094H2.06745V22.0494H5.08005C5.65548 22.0275 6.22816 22.1388 6.75363 22.3747C7.17164 22.5771 7.51339 22.9089 7.72827 23.3211C7.95583 23.7835 8.06734 24.2944 8.05315 24.8097C8.07571 25.3654 7.93909 25.916 7.65937 26.3965Z" fill="white"/>
<path d="M14.3634 20.7974C14.0812 20.9485 13.8056 21.0897 13.5367 21.2209C13.2679 21.3522 12.9955 21.4836 12.7196 21.6153C12.444 21.7467 12.1618 21.8654 11.873 21.9702C11.5842 22.075 11.2754 22.1808 10.9472 22.2856L11.3808 23.9615C11.7746 23.8432 12.1322 23.7249 12.4535 23.6066C12.7686 23.4914 13.0775 23.3597 13.3789 23.2123C13.6747 23.0681 13.97 22.9105 14.2649 22.7394L14.2748 22.7335V34.3333H16.3222V20.3347H15.2593C14.944 20.4918 14.6454 20.646 14.3634 20.7974Z" fill="white"/>
<path d="M24.3363 26.5641V22.5817H22.6036V26.5641H18.6066V28.1217H22.6036V32.085H24.3363V28.1217H28.3333V26.5641H24.3363Z" fill="white"/>
</svg>

<svg xmlns="http://www.w3.org/2000/svg" viewBox="0 0 40 35"><path fill="#fff" d="M0 14.333V.335h4.593v13.998H0Zm10.843-11.77 2.641 11.77H8.457L5.303.335h2.82a2.655 2.655 0 0 1 1.764.64c.491.404.829.964.956 1.588Zm3.331 11.77V.335h4.594v13.998h-4.594Zm8.063-8.675a2.738 2.738 0 0 1-1.409-.375 2.778 2.778 0 0 1-1.015-1.015 2.735 2.735 0 0 1-.375-1.41 2.685 2.685 0 0 1 .375-1.4A2.812 2.812 0 0 1 23.637.453c.415.244.761.59 1.005 1.005.251.424.38.908.375 1.4.005.495-.125.983-.375 1.41a2.8 2.8 0 0 1-1.005 1.015c-.424.251-.908.38-1.4.375Zm3.49 8.675V.335h4.594v13.998h-4.594Zm10.409-6.348c.013.013.111.174.296.483.184.308.424.702.72 1.183a381.583 381.583 0 0 1 1.862 3.056c.289.48.617 1.022.986 1.626h-5.047l-.858-1.39c-.256-.414-.529-.86-.817-1.34-.29-.48-.576-.946-.858-1.4a71.261 71.261 0 0 1-.73-1.193 21.112 21.112 0 0 0-.424-.69 2.04 2.04 0 0 1-.334-.986c.019-.338.128-.665.315-.947.078-.131.223-.365.433-.7a216.7 216.7 0 0 0 1.598-2.603l.817-1.35.858-1.4H40l-3.904 6.369c-.12.189-.189.407-.197.63.013.236.095.463.236.652h.001ZM9.49 22.148a3.519 3.519 0 0 0-.915-.957 4.39 4.39 0 0 0-1.33-.63 6.284 6.284 0 0 0-1.771-.227H0v13.999h2.067v-5.028h3.564a4.64 4.64 0 0 0 2.304-.572 4.261 4.261 0 0 0 1.624-1.597c.415-.74.623-1.577.601-2.425a5.768 5.768 0 0 0-.158-1.36 3.934 3.934 0 0 0-.511-1.203Zm-1.83 4.248a2.33 2.33 0 0 1-1.113.918 4.59 4.59 0 0 1-1.743.295H2.067v-5.56H5.08a3.739 3.739 0 0 1 1.674.326c.418.202.76.534.974.946.228.462.34.973.325 1.489a2.919 2.919 0 0 1-.394 1.587ZM14.363 20.797c-.282.151-.557.293-.826.424-.27.131-.542.263-.817.394-.276.132-.558.25-.847.355-.289.105-.598.21-.926.316l.434 1.675c.394-.118.751-.236 1.072-.354.316-.116.625-.247.926-.395.296-.144.591-.302.886-.473l.01-.006v11.6h2.047V20.335H15.26c-.315.157-.614.311-.896.462ZM24.336 26.564v-3.982h-1.732v3.982h-3.997v1.558h3.997v3.963h1.732v-3.963h3.997v-1.558h-3.997Z"/></svg>
